flaticon/fitness/locker.svg

<svg xmlns="http://www.w3.org/2000/svg" width="32" height="32" viewBox="0 0 24 24">
    <path d="M1.601562 21.199219L10.800781 21.199219C11 21.199219 11.199219 21.039062 11.199219 20.800781L11.199219 1.601562C11.199219 1.359375 11.039062 1.199219 10.800781 1.199219L1.601562 1.199219C1.359375 1.199219 1.199219 1.359375 1.199219 1.601562L1.199219 20.800781C1.199219 21.039062 1.359375 21.199219 1.601562 21.199219zM2 2L10.398438 2 10.398438 20.398438 2 20.398438zM13.199219 21.199219L22.398438 21.199219C22.601562 21.199219 22.800781 21.039062 22.800781 20.800781L22.800781 1.601562C22.800781 1.359375 22.640625 1.199219 22.398438 1.199219L13.199219 1.199219C12.960938 1.199219 12.800781 1.359375 12.800781 1.601562L12.800781 20.800781C12.800781 21.039062 12.960938 21.199219 13.199219 21.199219zM13.601562 2L22 2 22 20.398438 13.601562 20.398438zM13.601562 2"/>
    <path d="M 22.800781 0 L 12.800781 0 C 12.488281 0 12.210938 0.109375 12 0.292969 C 11.789062 0.109375 11.511719 0 11.199219 0 L 1.199219 0 C 0.519531 0 0 0.519531 0 1.199219 L 0 21.199219 C 0 21.738281 0.328125 22.175781 0.800781 22.335938 L 0.800781 23.039062 C 0.800781 23.558594 1.238281 24 1.761719 24 L 2.441406 24 C 2.800781 24 3.160156 23.800781 3.320312 23.480469 L 3.859375 22.398438 L 8.578125 22.398438 L 9.121094 23.480469 C 9.28125 23.800781 9.601562 24 9.960938 24 L 10.640625 24 C 11.160156 24 11.601562 23.558594 11.601562 23.039062 L 11.601562 22.398438 L 12.398438 22.398438 L 12.398438 23.039062 C 12.398438 23.558594 12.839844 24 13.359375 24 L 14.039062 24 C 14.398438 24 14.761719 23.800781 14.921875 23.480469 L 15.460938 22.398438 L 20.179688 22.398438 L 20.71875 23.480469 C 20.878906 23.800781 21.199219 24 21.558594 24 L 22.238281 24 C 22.761719 24 23.199219 23.558594 23.238281 23.039062 L 23.238281 22.316406 C 23.675781 22.140625 24 21.71875 24 21.199219 L 24 1.199219 C 24 0.519531 23.480469 0 22.800781 0 Z M 12.800781 0.800781 L 22.800781 0.800781 C 23.039062 0.800781 23.199219 0.960938 23.199219 1.199219 L 23.199219 21.199219 C 23.199219 21.441406 23.039062 21.601562 22.800781 21.601562 L 12.398438 21.601562 L 12.398438 1.199219 C 12.398438 0.960938 12.558594 0.800781 12.800781 0.800781 Z M 0.800781 1.199219 C 0.800781 0.960938 0.960938 0.800781 1.199219 0.800781 L 11.199219 0.800781 C 11.441406 0.800781 11.601562 0.960938 11.601562 1.199219 L 11.601562 21.601562 L 1.199219 21.601562 C 0.960938 21.601562 0.800781 21.441406 0.800781 21.199219 Z M 2.601562 23.121094 C 2.558594 23.160156 2.519531 23.199219 2.441406 23.199219 L 1.761719 23.199219 C 1.679688 23.199219 1.601562 23.121094 1.601562 23.039062 L 1.601562 22.398438 L 2.960938 22.398438 Z M 10.800781 23.039062 C 10.800781 23.121094 10.71875 23.199219 10.640625 23.199219 L 9.960938 23.199219 C 9.878906 23.199219 9.839844 23.160156 9.800781 23.121094 L 9.441406 22.398438 L 10.800781 22.398438 Z M 14.199219 23.121094 C 14.160156 23.160156 14.121094 23.199219 14.039062 23.199219 L 13.359375 23.199219 C 13.28125 23.199219 13.199219 23.121094 13.199219 23.039062 L 13.199219 22.398438 L 14.558594 22.398438 Z M 22.398438 23.039062 C 22.398438 23.121094 22.320312 23.199219 22.238281 23.199219 L 21.558594 23.199219 C 21.480469 23.199219 21.441406 23.160156 21.398438 23.121094 L 21.039062 22.398438 L 22.398438 22.398438 Z M 22.398438 23.039062"/>
    <path d="M8.800781 12C8.558594 12 8.398438 12.160156 8.398438 12.398438L8.398438 14C8.398438 14.238281 8.558594 14.398438 8.800781 14.398438 9 14.398438 9.199219 14.238281 9.199219 14L9.199219 12.398438C9.199219 12.160156 9.039062 12 8.800781 12zM9.601562 2.398438L8.800781 2.398438C8.558594 2.398438 8.398438 2.558594 8.398438 2.800781 8.398438 3.039062 8.558594 3.199219 8.800781 3.199219L9.601562 3.199219C9.800781 3.199219 10 3.039062 10 2.800781 10 2.558594 9.839844 2.398438 9.601562 2.398438zM9.601562 3.601562L9.199219 3.601562C8.960938 3.601562 8.800781 3.761719 8.800781 4 8.800781 4.238281 8.960938 4.398438 9.199219 4.398438L9.601562 4.398438C9.800781 4.398438 10 4.238281 10 4 10 3.761719 9.839844 3.601562 9.601562 3.601562zM3.601562 19.199219L2.800781 19.199219C2.558594 19.199219 2.398438 19.359375 2.398438 19.601562 2.398438 19.839844 2.558594 20 2.800781 20L3.601562 20C3.800781 20 4 19.839844 4 19.601562 4 19.359375 3.839844 19.199219 3.601562 19.199219zM2.800781 18.800781L3.199219 18.800781C3.398438 18.800781 3.601562 18.640625 3.601562 18.398438 3.601562 18.160156 3.441406 18 3.199219 18L2.800781 18C2.558594 18 2.398438 18.160156 2.398438 18.398438 2.398438 18.640625 2.558594 18.800781 2.800781 18.800781zM4 6L8.398438 6C8.601562 6 8.800781 5.839844 8.800781 5.601562 8.800781 5.359375 8.640625 5.199219 8.398438 5.199219L4 5.199219C3.761719 5.199219 3.601562 5.359375 3.601562 5.601562 3.601562 5.839844 3.761719 6 4 6zM4 7.601562L8.398438 7.601562C8.601562 7.601562 8.800781 7.441406 8.800781 7.199219 8.800781 6.960938 8.640625 6.800781 8.398438 6.800781L4 6.800781C3.761719 6.800781 3.601562 6.960938 3.601562 7.199219 3.601562 7.441406 3.761719 7.601562 4 7.601562zM8.800781 8.800781C8.800781 8.558594 8.640625 8.398438 8.398438 8.398438L4 8.398438C3.761719 8.398438 3.601562 8.558594 3.601562 8.800781 3.601562 9.039062 3.761719 9.199219 4 9.199219L8.398438 9.199219C8.601562 9.199219 8.800781 9.039062 8.800781 8.800781zM20.398438 12C20.160156 12 20 12.160156 20 12.398438L20 14C20 14.238281 20.160156 14.398438 20.398438 14.398438 20.601562 14.398438 20.800781 14.238281 20.800781 14L20.800781 12.398438C20.800781 12.160156 20.640625 12 20.398438 12zM21.199219 2.398438L20.398438 2.398438C20.160156 2.398438 20 2.558594 20 2.800781 20 3.039062 20.160156 3.199219 20.398438 3.199219L21.199219 3.199219C21.398438 3.199219 21.601562 3.039062 21.601562 2.800781 21.601562 2.558594 21.441406 2.398438 21.199219 2.398438zM21.199219 3.601562L20.800781 3.601562C20.558594 3.601562 20.398438 3.761719 20.398438 4 20.398438 4.238281 20.558594 4.398438 20.800781 4.398438L21.199219 4.398438C21.398438 4.398438 21.601562 4.238281 21.601562 4 21.601562 3.761719 21.441406 3.601562 21.199219 3.601562zM15.199219 19.199219L14.398438 19.199219C14.160156 19.199219 14 19.359375 14 19.601562 14 19.839844 14.160156 20 14.398438 20L15.199219 20C15.398438 20 15.601562 19.839844 15.601562 19.601562 15.601562 19.359375 15.441406 19.199219 15.199219 19.199219zM14.398438 18.800781L14.800781 18.800781C15 18.800781 15.199219 18.640625 15.199219 18.398438 15.199219 18.160156 15.039062 18 14.800781 18L14.398438 18C14.160156 18 14 18.160156 14 18.398438 14 18.640625 14.160156 18.800781 14.398438 18.800781zM15.601562 6L20 6C20.199219 6 20.398438 5.839844 20.398438 5.601562 20.398438 5.359375 20.238281 5.199219 20 5.199219L15.601562 5.199219C15.359375 5.199219 15.199219 5.359375 15.199219 5.601562 15.199219 5.839844 15.359375 6 15.601562 6zM15.601562 7.601562L20 7.601562C20.199219 7.601562 20.398438 7.441406 20.398438 7.199219 20.398438 6.960938 20.238281 6.800781 20 6.800781L15.601562 6.800781C15.359375 6.800781 15.199219 6.960938 15.199219 7.199219 15.199219 7.441406 15.359375 7.601562 15.601562 7.601562zM20.398438 8.800781C20.398438 8.558594 20.238281 8.398438 20 8.398438L15.601562 8.398438C15.359375 8.398438 15.199219 8.558594 15.199219 8.800781 15.199219 9.039062 15.359375 9.199219 15.601562 9.199219L20 9.199219C20.199219 9.199219 20.398438 9.039062 20.398438 8.800781zM20.398438 8.800781"/>
</svg>

<svg xmlns="http://www.w3.org/2000/svg" width="32" height="32" viewBox="0 0 24 24">
    <path d="M1.602 21.2H10.8a.4.4 0 0 0 .398-.4V1.603c0-.243-.16-.403-.398-.403H1.6c-.242 0-.402.16-.402.403V20.8c0 .238.16.398.403.398zM2 2h8.398v18.398H2zm0 0M13.2 21.2h9.198a.4.4 0 0 0 .403-.4V1.603c0-.243-.16-.403-.403-.403H13.2c-.238 0-.398.16-.398.403V20.8c0 .238.16.398.398.398zM13.601 2H22v18.398h-8.398zm0 0"/>
    <path d="M22.8 0h-10c-.312 0-.59.11-.8.293A1.207 1.207 0 0 0 11.2 0h-10C.52 0 0 .52 0 1.2v20c0 .538.328.976.8 1.136v.703c0 .52.438.961.962.961h.68c.359 0 .718-.2.878-.52l.54-1.082h4.718l.543 1.082c.16.32.48.52.84.52h.68c.52 0 .96-.441.96-.96v-.642h.797v.641c0 .52.442.961.961.961h.68c.36 0 .723-.2.883-.52l.539-1.082h4.719l.539 1.082c.16.32.48.52.84.52h.68c.523 0 .96-.441 1-.96v-.724c.437-.175.761-.597.761-1.117v-20C24 .52 23.48 0 22.8 0zm-10 .8h10c.24 0 .4.16.4.4v20c0 .241-.16.402-.4.402H12.399V1.199c0-.238.16-.398.403-.398zm-12 .4c0-.24.16-.4.4-.4h10c.241 0 .402.16.402.4v20.402H1.199c-.238 0-.398-.16-.398-.403zM2.603 23.12c-.043.04-.082.078-.16.078h-.68a.17.17 0 0 1-.16-.16v-.64H2.96zm8.199-.082c0 .082-.082.16-.16.16h-.68c-.082 0-.121-.039-.16-.078l-.36-.723h1.36zm3.398.082c-.039.04-.078.078-.16.078h-.68c-.078 0-.16-.078-.16-.16v-.64h1.36zm8.2-.082a.17.17 0 0 1-.16.16h-.68c-.079 0-.118-.039-.16-.078l-.36-.723h1.36zm0 0"/>
    <path d="M8.8 12c-.241 0-.402.16-.402.398V14c0 .238.16.398.403.398A.4.4 0 0 0 9.199 14v-1.602c0-.238-.16-.398-.398-.398zm0 0M9.602 2.398H8.8c-.242 0-.403.16-.403.403 0 .238.16.398.403.398h.8A.4.4 0 0 0 10 2.801c0-.242-.16-.403-.398-.403zm0 0M9.602 3.602h-.403c-.238 0-.398.16-.398.398 0 .238.16.398.398.398h.403A.4.4 0 0 0 10 4c0-.238-.16-.398-.398-.398zm0 0M3.602 19.2H2.8c-.242 0-.403.16-.403.402 0 .238.16.398.403.398h.8A.4.4 0 0 0 4 19.602c0-.243-.16-.403-.398-.403zm0 0M2.8 18.8h.4c.198 0 .402-.16.402-.402 0-.238-.16-.398-.403-.398h-.398c-.242 0-.403.16-.403.398 0 .243.16.403.403.403zm0 0M4 6h4.398a.4.4 0 0 0 .403-.398c0-.243-.16-.403-.403-.403H4c-.238 0-.398.16-.398.403 0 .238.16.398.398.398zm0 0M4 7.602h4.398c.204 0 .403-.16.403-.403 0-.238-.16-.398-.403-.398H4c-.238 0-.398.16-.398.398 0 .242.16.403.398.403zm0 0M8.8 8.8c0-.241-.16-.402-.402-.402H4c-.238 0-.398.16-.398.403 0 .238.16.398.398.398h4.398a.4.4 0 0 0 .403-.398zm0 0M20.398 12c-.238 0-.398.16-.398.398V14c0 .238.16.398.398.398a.4.4 0 0 0 .403-.398v-1.602c0-.238-.16-.398-.403-.398zm0 0M21.2 2.398h-.802c-.238 0-.398.16-.398.403 0 .238.16.398.398.398h.801c.2 0 .403-.16.403-.398 0-.242-.16-.403-.403-.403zm0 0M21.2 3.602h-.4c-.241 0-.402.16-.402.398 0 .238.16.398.403.398h.398c.2 0 .403-.16.403-.398 0-.238-.16-.398-.403-.398zm0 0M15.2 19.2h-.802c-.238 0-.398.16-.398.402 0 .238.16.398.398.398h.801c.2 0 .403-.16.403-.398 0-.243-.16-.403-.403-.403zm0 0M14.398 18.8h.403a.4.4 0 0 0 .398-.402c0-.238-.16-.398-.398-.398h-.403c-.238 0-.398.16-.398.398 0 .243.16.403.398.403zm0 0M15.602 6H20a.4.4 0 0 0 .398-.398c0-.243-.16-.403-.398-.403h-4.398c-.243 0-.403.16-.403.403 0 .238.16.398.403.398zm0 0M15.602 7.602H20a.4.4 0 0 0 .398-.403c0-.238-.16-.398-.398-.398h-4.398c-.243 0-.403.16-.403.398 0 .242.16.403.403.403zm0 0M20.398 8.8c0-.241-.16-.402-.398-.402h-4.398c-.243 0-.403.16-.403.403 0 .238.16.398.403.398H20a.4.4 0 0 0 .398-.398zm0 0"/>
</svg>
